X:1
T:Title
%%score ( 1 2 ) { 3 | 4 }
L:1/8
Q:1/4=96
M:6/8
K:Ab
V:1 treble nm="Drawbar Organ, Soprano"
V:2 treble 
V:3 bass nm="Church Organ, Able, Willing, Mighty"
V:4 bass 
V:1
 [CE][CE][CE] [CA][CA][CA] | [Ec]2 [Ec] [Ec]3 | [Ec][Fd][Ec] [Ec][EB][EA] | [DG]6 | %4
w: By~John~Prentice~Scholfield * * * * *||||
 [DE][DE][DE] [DB][DB][DB] | [Ed]2 [Fd] [Gd]3 | [ce][Bd][Ac] [GB][Gc][GB] | A6 | c3 G3 | %9
w: |||||
 A3 C3[K:bass] | [CE][CF][CG] [CA][DB][Ec] | d2- [Ed-] [Gd]3 | d3 =A3 | c3 B3 | %14
w: |||||
 [DE][DF][DG] [DA][DB][=D_c] | c6 | c3 G3 | A3 c3 | [CE][CF][CG] [CA][DB][Ec] | f6 | %20
w: ||||||
 [Af]3 [Ag]2 [Af] | e3 c3 | [ce][Bd][Ac] [GB][Ace][GBd] | [Ac]6- | [Ac]3 z3 |] %25
w: |||||
V:2
 x6 | x6 | x6 | x6 | x6 | x6 | x6 | x6 | z [EA][EA] z [CE][CE] | %9
 z [CE][CE] z[K:bass] [E,A,][E,A,] | x6 | .E3 z3 | z [EG][EG] z [CE_G][CEG] | %13
 z [EG][EG] z [DG][DG] | x6 | EAF E3 | z [EA][EA] z [CE][CE] | z [CE][CE] z [EA][EA] | x6 | %19
 F2 =A B3 | x6 | AAA A A2 | x6 | x6 | x6 |] %25
V:3
 A,A,A, E,E,E, | A,2 A, A,3 | A,A,A, A,G,A, | B,6 | G,G,G, G,G,G, | G,2 A, B,3 | EEE DED | C6 | %8
 C3[K:bass] G,3 | A,3 C,3 | A,3 A,2 A, | G,G,G, B,3 | B,3 =A,3 | C3 B,3 | G,A,B, A,G,G, | %15
 A,A,A, A,3 | C3 G,3 | A,3 C3 | A,3 A,2 A, | A,A,[K:treble]E D3 | D3 _C2 C | CCC E E2 | EEE DED | %23
 C6- | C3 z3 |] %25
V:4
 A,,A,,A,, A,,A,,A,, | A,,2 A,, A,,3 | A,,A,,A,, A,,B,,C, | E,6 | E,E,E, E,E,E, | E,2 E, E,3 | %6
 E,E,E, E,E,E, | A,,6 | z6 | z6 | A,,3 A,,2 A,, | B,,B,,B,, E,3 | E,3 E,3 | E,3 E,3 | E,3 E,2 E, | %15
 A,,A,,A,, A,,3 | z6 | z6 | A,,3 A,,2 A,, | D,D,C, B,,3 | D,3 =D,2 D, | E,E,E, E, E,2 | %22
 E,E,E, E,E,E, | A,,6- | A,,3 z3 |] %25

